symbols/web/party_mode/materialsymbolssharp/party_mode_wght100gradN25_48px.svg

<svg xmlns="http://www.w3.org/2000/svg" height="48" width="48"><path d="M24 32.85q2.95 0 4.9-1.975Q30.85 28.9 30.85 26q0-.25-.025-.475-.025-.225-.075-.475h-1.1q.05.25.075.475.025.225.025.475 0 2.3-1.7 4.025-1.7 1.725-4.05 1.725h-3.7q.45.45 1.475.775 1.025.325 2.225.325Zm-6.75-5.8h1q-.05-.25-.025-.525T18.25 26q0-2.35 1.7-4.05 1.7-1.7 4.05-1.7h3.75q-.7-.4-1.6-.75-.9-.35-2.15-.35-2.9 0-4.875 1.975T17.15 26v.525q0 .275.1.525ZM6.6 39.4V12.7h8.8l3.7-4.1h9.8l3.7 4.1h8.8v26.7Zm1.1-1.1h32.6V13.8H7.7ZM24 26Z"/></svg>

<svg xmlns="http://www.w3.org/2000/svg" height="48" width="48"><path d="M24 32.85Q26.95 32.85 28.9 30.875Q30.85 28.9 30.85 26Q30.85 25.75 30.825 25.525Q30.8 25.3 30.75 25.05H29.65Q29.7 25.3 29.725 25.525Q29.75 25.75 29.75 26Q29.75 28.3 28.05 30.025Q26.35 31.75 24 31.75H20.3Q20.75 32.2 21.775 32.525Q22.8 32.85 24 32.85ZM17.25 27.05H18.25Q18.2 26.8 18.225 26.525Q18.25 26.25 18.25 26Q18.25 23.65 19.95 21.95Q21.65 20.25 24 20.25H27.75Q27.05 19.85 26.15 19.5Q25.25 19.15 24 19.15Q21.1 19.15 19.125 21.125Q17.15 23.1 17.15 26Q17.15 26.25 17.15 26.525Q17.15 26.8 17.25 27.05ZM6.6 39.4V12.7H15.4L19.1 8.6H28.9L32.6 12.7H41.4V39.4ZM7.7 38.3H40.3V13.8H7.7ZM24 26Z"/></svg>
